src/lib/packages/icons/src/assets/line/bookmarks-heart.svg

<svg width="24" height="24" viewBox="0 0 24 24" fill="none" xmlns="http://www.w3.org/2000/svg">
<path d="M17.4299 1.25H10.571C8.46105 1.25 7.25098 2.45995 7.25098 4.56995V5.25H6.57202C4.43002 5.25 3.25098 6.43005 3.25098 8.57104V22C3.25098 22.268 3.394 22.515 3.625 22.649C3.741 22.716 3.87098 22.75 4.00098 22.75C4.12898 22.75 4.25805 22.717 4.37305 22.651L10.001 19.4351L15.6289 22.651C15.8609 22.784 16.147 22.7829 16.377 22.6479C16.608 22.5139 16.751 22.267 16.751 22V17.004L19.6279 18.651C19.7439 18.717 19.872 18.75 20.001 18.75C20.131 18.75 20.261 18.716 20.377 18.649C20.608 18.515 20.751 18.268 20.751 18V4.56995C20.75 2.45995 19.5399 1.25 17.4299 1.25ZM15.25 20.707L10.3721 17.92C10.1421 17.788 9.85793 17.788 9.62793 17.92L4.75 20.708V8.57202C4.75 7.27902 5.27704 6.75098 6.57104 6.75098H13.428C14.722 6.75098 15.249 7.27902 15.249 8.57202V20.707H15.25ZM19.25 16.707L16.75 15.275V8.57104C16.75 6.42904 15.57 5.25 13.429 5.25H8.75V4.56995C8.75 3.27795 9.27707 2.75 10.5701 2.75H17.429C18.722 2.75 19.249 3.27695 19.249 4.56995V16.707H19.25ZM11.4399 8.68103C11.4359 8.68103 11.432 8.68103 11.427 8.68103C10.819 8.68103 10.347 8.91097 9.99902 9.21497C9.65102 8.91097 9.18005 8.68103 8.57104 8.68103C8.56704 8.68103 8.56211 8.68103 8.55811 8.68103C7.76811 8.68503 7.10301 8.98798 6.63501 9.55798C6.07501 10.24 5.871 11.228 6.073 12.269C6.564 14.804 9.56001 16.194 9.68701 16.252C9.78601 16.297 9.89105 16.319 9.99805 16.319C10.105 16.319 10.2101 16.297 10.3091 16.252C10.4361 16.194 13.4311 14.804 13.9231 12.27C14.1251 11.228 13.9211 10.239 13.3621 9.55798C12.8961 8.98698 12.2309 8.68503 11.4399 8.68103ZM12.4519 11.983C12.1829 13.366 10.665 14.353 10 14.724C9.335 14.352 7.8151 13.366 7.5481 11.983C7.4351 11.399 7.52912 10.8341 7.79712 10.5081C7.97712 10.2891 8.22912 10.1811 8.56812 10.1801C8.56912 10.1801 8.57002 10.1801 8.57202 10.1801C9.06902 10.1801 9.27106 10.696 9.28906 10.746C9.39106 11.049 9.67392 11.249 9.99292 11.254C9.99592 11.254 9.99893 11.254 10.0029 11.254C10.3169 11.254 10.602 11.052 10.71 10.755C10.731 10.696 10.9329 10.1801 11.4309 10.1801C11.4319 10.1801 11.4331 10.1801 11.4341 10.1801C11.7741 10.1811 12.0261 10.2891 12.2051 10.5081C12.4711 10.8331 12.5659 11.399 12.4519 11.983Z" fill="currentColor"/>
</svg>

<svg xmlns="http://www.w3.org/2000/svg" width="24" height="24" fill="none"><path fill="currentColor" d="M17.43 1.25h-6.86c-2.11 0-3.32 1.21-3.32 3.32v.68h-.679c-2.142 0-3.321 1.18-3.321 3.321V22a.75.75 0 0 0 1.122.651L10 19.435l5.628 3.216A.75.75 0 0 0 16.75 22v-4.996l2.877 1.647A.752.752 0 0 0 20.75 18V4.57c-.001-2.11-1.211-3.32-3.321-3.32Zm-2.18 19.457-4.878-2.787a.749.749 0 0 0-.744 0L4.75 20.708V8.572c0-1.293.527-1.821 1.821-1.821h6.857c1.294 0 1.821.528 1.821 1.821v12.135h.001Zm4-4-2.5-1.432V8.571c0-2.142-1.18-3.321-3.321-3.321H8.75v-.68c0-1.292.527-1.82 1.82-1.82h6.859c1.293 0 1.82.527 1.82 1.82v12.137h.001Zm-7.81-8.026h-.013c-.608 0-1.08.23-1.428.534a2.121 2.121 0 0 0-1.428-.534h-.013c-.79.004-1.455.307-1.923.877-.56.682-.764 1.67-.562 2.711.491 2.535 3.487 3.925 3.614 3.983a.747.747 0 0 0 .622 0c.127-.058 3.122-1.448 3.614-3.982.202-1.042-.002-2.031-.56-2.712-.467-.571-1.132-.873-1.923-.877Zm1.012 3.302c-.27 1.383-1.787 2.37-2.452 2.741-.665-.372-2.185-1.358-2.452-2.741-.113-.584-.019-1.149.25-1.475.18-.219.431-.327.77-.328h.004c.497 0 .7.516.717.566a.75.75 0 0 0 .704.508h.01a.758.758 0 0 0 .707-.499c.021-.059.223-.575.72-.575h.004c.34.001.592.11.771.328.266.325.36.891.247 1.475Z"/></svg>
